src/images/upload.svg

<svg width="48" height="48" viewBox="0 0 48 48" fill="none" xmlns="http://www.w3.org/2000/svg">
<path d="M12.5 40.0008C9.63333 40.0008 7.16667 38.9675 5.1 36.9008C3.03333 34.8341 2 32.3674 2 29.5008C2 26.9008 2.825 24.6091 4.475 22.6258C6.125 20.6424 8.25 19.4508 10.85 19.0508C11.5167 15.8174 13.0833 13.1758 15.55 11.1258C18.0167 9.07578 20.8667 8.05078 24.1 8.05078C27.8667 8.05078 31.025 9.40911 33.575 12.1258C36.125 14.8424 37.4 18.1008 37.4 21.9008V23.1008C39.8 23.0341 41.8333 23.8091 43.5 25.4258C45.1667 27.0424 46 29.0841 46 31.5508C46 33.8508 45.1667 35.8341 43.5 37.5008C41.8333 39.1674 39.85 40.0008 37.55 40.0008H25.5C24.7 40.0008 24 39.7008 23.4 39.1008C22.8 38.5008 22.5 37.8008 22.5 37.0008V24.1008L19.4 27.2008C19.1 27.5008 18.75 27.6424 18.35 27.6258C17.95 27.6091 17.6 27.4508 17.3 27.1508C17 26.8508 16.85 26.4924 16.85 26.0758C16.85 25.6591 17 25.3008 17.3 25.0008L22.95 19.3508C23.1167 19.1841 23.2833 19.0674 23.45 19.0008C23.6167 18.9341 23.8 18.9008 24 18.9008C24.2 18.9008 24.3833 18.9341 24.55 19.0008C24.7167 19.0674 24.8833 19.1841 25.05 19.3508L30.75 25.0508C31.05 25.3508 31.2 25.7008 31.2 26.1008C31.2 26.5008 31.05 26.8508 30.75 27.1508C30.45 27.4508 30.0917 27.6008 29.675 27.6008C29.2583 27.6008 28.9 27.4508 28.6 27.1508L25.5 24.1008V37.0008H37.55C39.05 37.0008 40.3333 36.4675 41.4 35.4008C42.4667 34.3341 43 33.0508 43 31.5508C43 30.0508 42.4667 28.7674 41.4 27.7008C40.3333 26.6341 39.05 26.1008 37.55 26.1008H34.4V21.9008C34.4 18.9341 33.3917 16.3841 31.375 14.2508C29.3583 12.1174 26.8667 11.0508 23.9 11.0508C20.9333 11.0508 18.4333 12.1174 16.4 14.2508C14.3667 16.3841 13.35 18.9341 13.35 21.9008H12.4C10.3333 21.9008 8.58333 22.6258 7.15 24.0758C5.71667 25.5258 5 27.3174 5 29.4508C5 31.5174 5.73333 33.2925 7.2 34.7758C8.66667 36.2591 10.4333 37.0008 12.5 37.0008H18C18.4333 37.0008 18.7917 37.1424 19.075 37.4258C19.3583 37.7091 19.5 38.0674 19.5 38.5008C19.5 38.9341 19.3583 39.2924 19.075 39.5758C18.7917 39.8591 18.4333 40.0008 18 40.0008H12.5Z" fill="#C1C3C3"/>
</svg>

<?xml version="1.0" encoding="utf-8"?>
<!-- Generator: Adobe Illustrator 27.0.0, SVG Export Plug-In . SVG Version: 6.00 Build 0)  -->
<svg version="1.1" id="Layer_1" xmlns="http://www.w3.org/2000/svg" xmlns:xlink="http://www.w3.org/1999/xlink" x="0px" y="0px"
	 viewBox="0 0 48 48" style="enable-background:new 0 0 48 48;" xml:space="preserve">
<style type="text/css">
	.st0{fill:#919191;}
</style>
<path class="st0" d="M12.5,40c-2.9,0-5.3-1-7.4-3.1S2,32.4,2,29.5c0-2.6,0.8-4.9,2.5-6.9c1.7-2,3.8-3.2,6.4-3.6
	c0.7-3.2,2.2-5.9,4.7-7.9c2.5-2.1,5.3-3.1,8.6-3.1c3.8,0,6.9,1.4,9.5,4.1c2.5,2.7,3.8,6,3.8,9.8v1.2c2.4-0.1,4.4,0.7,6.1,2.3
	c1.7,1.6,2.5,3.7,2.5,6.1c0,2.3-0.8,4.3-2.5,6c-1.7,1.7-3.7,2.5-6,2.5h-12c-0.8,0-1.5-0.3-2.1-0.9c-0.6-0.6-0.9-1.3-0.9-2.1V24.1
	l-3.1,3.1c-0.3,0.3-0.6,0.4-1,0.4c-0.4,0-0.8-0.2-1.1-0.5c-0.3-0.3-0.4-0.7-0.4-1.1c0-0.4,0.1-0.8,0.4-1.1l5.7-5.6
	c0.2-0.2,0.3-0.3,0.5-0.4c0.2-0.1,0.3-0.1,0.5-0.1s0.4,0,0.5,0.1c0.2,0.1,0.3,0.2,0.5,0.4l5.7,5.7c0.3,0.3,0.5,0.6,0.5,1
	s-0.2,0.8-0.5,1.1c-0.3,0.3-0.7,0.4-1.1,0.4c-0.4,0-0.8-0.1-1.1-0.4l-3.1-3.1V37h12c1.5,0,2.8-0.5,3.9-1.6s1.6-2.3,1.6-3.8
	s-0.5-2.8-1.6-3.9c-1.1-1.1-2.4-1.6-3.9-1.6h-3.1v-4.2c0-3-1-5.5-3-7.7c-2-2.1-4.5-3.2-7.5-3.2s-5.5,1.1-7.5,3.2c-2,2.1-3,4.7-3,7.7
	h-1c-2.1,0-3.8,0.7-5.2,2.2S5,27.3,5,29.5c0,2.1,0.7,3.8,2.2,5.3c1.5,1.5,3.2,2.2,5.3,2.2H18c0.4,0,0.8,0.1,1.1,0.4
	c0.3,0.3,0.4,0.6,0.4,1.1c0,0.4-0.1,0.8-0.4,1.1C18.8,39.9,18.4,40,18,40H12.5z"/>
</svg>
